X: 20
M:6/8
L:1/8
K:D
|:d|f2 d edB|d2 c BAF|EFE EFA|e3 efa|
fed edB|d2 B BAF|AFF d2 D|DED D2:||

